logos/fabric.svg

<?xml version="1.0" encoding="UTF-8" standalone="no"?>
<svg width="256px" height="195px" viewBox="0 0 256 195" version="1.1" xmlns="http://www.w3.org/2000/svg" xmlns:xlink="http://www.w3.org/1999/xlink" preserveAspectRatio="xMidYMid">
	<g>
		<path d="M195.575035,178.073401 C194.284078,183.606786 193.621665,186.976623 190.866428,190.696093 C189.029603,193.176405 186.021354,194.599844 182.956327,194.241245 C180.292732,193.930459 177.713805,192.788918 175.120934,191.790817 C145.135066,180.249899 120.935595,159.929276 96.4870973,139.982195 C90.6598599,135.227767 78.3628949,124.220763 71.3791751,118.43835 C88.3817588,106.418304 95.4202646,98.9843424 95.4202646,98.9843424 C122.818241,122.770428 154.761463,150.615658 188.098241,164.543253 C193.41049,166.76358 198.381074,166.044389 195.575035,178.073401" fill="#FEC32D"></path>
		<path d="M161.689401,88.6736187 C153.976529,82.578428 140.486226,72.4589572 132.869977,66.5839066 C113.516576,51.6552218 92.8762023,39.1958911 69.1976965,32.0966226 C56.3727938,28.251642 54.6883735,15.3609961 64.3844981,3.97447471 C66.1466148,1.90456031 68.9018521,0.545867704 71.5634553,1.10269261 C115.664187,10.3356265 149.037821,37.35807 186.20165,71.4628482 C173.627767,78.1058988 161.689401,88.6736187 161.689401,88.6736187" fill="#FEC32D"></path>
		<path d="M135.123175,120.680591 C162.659611,92.809463 216.124763,59.1340078 243.08744,57.8958444 C246.239128,57.7514086 249.232436,59.3272529 250.887969,62.0127626 C253.543595,66.3209339 254.402241,71.478786 255.195144,76.5509728 C255.961152,81.4518288 253.406132,85.6344903 248.758288,86.9364047 C216.546117,95.9591595 185.262319,117.896467 159.86951,138.840654 C151.328872,134.807409 135.123175,120.680591 135.123175,120.680591" fill="#2C6DB0"></path>
		<path d="M120.092887,67.9057432 C88.4604514,94.3185681 54.1365292,125.831471 17.0304747,137.113401 C13.8977121,138.065681 10.4392218,137.279751 8.18602335,134.904031 C5.15486381,131.707518 3.99439689,128.418366 2.76519844,125.216872 C-1.52803113,114.031564 -0.310785992,110.760342 10.8037977,106.483051 C36.8938833,96.4402802 58.6020856,79.7504747 79.6050428,61.9101634 C82.7856187,59.208716 89.0939767,54.0219767 92.5733852,51.1611518 C104.07944,54.2451051 120.092887,67.9057432 120.092887,67.9057432" fill="#2C6DB0"></path>
		<path d="M63.1035019,165.362054 C72.1750661,160.713214 86.1405136,155.226646 95.2449494,150.111626 C102.599222,156.596296 119.626708,169.513837 119.626708,169.513837 C107.279938,177.767595 87.5878599,190.056591 73.8784125,193.601743 C70.564358,194.459393 67.0451051,193.169432 64.951284,190.461012 C60.9429416,185.274272 58.6249961,179.767782 58.4257743,173.215377 C58.3261634,169.928218 60.17793,166.861198 63.1035019,165.362054" fill="#2C6DB0"></path>
		<path d="M136.655191,20.6652763 C152.866864,10.8595798 171.107611,3.49634241 183.606786,0.821789883 C187.044358,0.0866614786 190.636327,1.58779767 192.522957,4.55421012 C196.109946,10.1931829 197.601121,15.8600467 197.234553,22.0588327 C197.054257,25.1168872 195.358879,27.8920467 192.671377,29.3593152 C184.830008,33.6415875 170.863564,36.9805447 162.836918,40.4838599 C162.836918,40.4838599 148.68221,28.5435019 136.655191,20.6652763" fill="#2C6DB0"></path>
		<path d="M233.097463,101.67284 C254.991938,110.176623 263.068389,113.060358 247.094786,135.124171 C245.222101,137.71007 242.246724,137.727004 239.138864,136.992872 C229.176778,134.640062 211.498833,124.453852 201.713058,118.761089 C219.750599,106.282833 233.097463,101.67284 233.097463,101.67284" fill="#FEC32D"></path>
		<path d="M25.6717198,91.7884514 C20.2648405,90.2424903 9.97802335,88.6108638 5.26742412,85.74207 C3.13774319,84.4451362 1.70533852,82.1869572 1.39953307,79.7126226 C0.62555642,73.4560623 2.23228016,67.8210739 5.28336187,62.1512218 C6.95084825,59.0543191 10.3545525,57.2623191 13.8508949,57.6498054 C24.3498833,58.816249 43.3237665,66.7502568 53.595642,71.4469105 C38.719751,85.1454008 25.6717198,91.7884514 25.6717198,91.7884514" fill="#FEC32D"></path>
	</g>
</svg>

<svg preserveAspectRatio="xMidYMid" viewBox="0 0 256 195" xmlns="http://www.w3.org/2000/svg">
  <path fill="#FEC32D" d="M195.575 178.073c-1.29 5.534-1.953 8.904-4.709 12.623-1.836 2.48-4.845 3.904-7.91 3.545-2.663-.31-5.242-1.452-7.835-2.45-29.986-11.541-54.185-31.862-78.634-51.809-5.827-4.754-18.124-15.761-25.108-21.544 17.003-12.02 24.041-19.454 24.041-19.454 27.398 23.786 59.341 51.632 92.678 65.56 5.312 2.22 10.283 1.5 7.477 13.53"/>
  <path fill="#FEC32D" d="M161.69 88.674c-7.713-6.096-21.204-16.215-28.82-22.09-19.353-14.929-39.994-27.388-63.672-34.487-12.825-3.845-14.51-16.736-4.814-28.123 1.763-2.07 4.518-3.428 7.18-2.871 44.1 9.233 77.474 36.255 114.638 70.36-12.574 6.643-24.513 17.21-24.513 17.21"/>
  <path fill="#2C6DB0" d="M135.123 120.68c27.537-27.87 81.002-61.546 107.964-62.784a8.701 8.701 0 0 1 7.801 4.117c2.656 4.308 3.514 9.466 4.307 14.538.766 4.9-1.789 9.083-6.437 10.385-32.212 9.023-63.496 30.96-88.888 51.905-8.541-4.034-24.747-18.16-24.747-18.16"/>
  <path fill="#2C6DB0" d="M120.093 67.906C88.46 94.319 54.137 125.83 17.03 137.113c-3.132.953-6.59.167-8.844-2.209-3.031-3.196-4.192-6.486-5.42-9.687-4.294-11.185-3.077-14.457 8.038-18.734C36.894 96.44 58.602 79.75 79.605 61.91c3.18-2.701 9.489-7.888 12.968-10.749 11.506 3.084 27.52 16.745 27.52 16.745"/>
  <path fill="#2C6DB0" d="M63.104 165.362c9.071-4.649 23.037-10.135 32.14-15.25 7.355 6.484 24.383 19.402 24.383 19.402-12.347 8.254-32.04 20.543-45.749 24.088-3.314.857-6.833-.433-8.927-3.141-4.008-5.187-6.326-10.693-6.525-17.246-.1-3.287 1.752-6.354 4.678-7.853"/>
  <path fill="#2C6DB0" d="M136.655 20.665C152.867 10.86 171.108 3.496 183.607.822c3.437-.735 7.03.766 8.916 3.732 3.587 5.64 5.078 11.306 4.712 17.505-.18 3.058-1.876 5.833-4.564 7.3-7.841 4.283-21.807 7.622-29.834 11.125 0 0-14.155-11.94-26.182-19.819"/>
  <path fill="#FEC32D" d="M233.097 101.673c21.895 8.504 29.971 11.387 13.998 33.451-1.873 2.586-4.848 2.603-7.956 1.869-9.962-2.353-27.64-12.54-37.426-18.232 18.038-12.478 31.384-17.088 31.384-17.088"/>
  <path fill="#FEC32D" d="M25.672 91.788c-5.407-1.546-15.694-3.177-20.405-6.046-2.13-1.297-3.562-3.555-3.867-6.03-.774-6.256.832-11.89 3.883-17.56a8.672 8.672 0 0 1 8.568-4.502c10.499 1.166 29.473 9.1 39.745 13.797C38.72 85.145 25.672 91.788 25.672 91.788"/>
</svg>
